actions/22/view-certificate-export-server.svg

<svg xmlns="http://www.w3.org/2000/svg" viewBox="0 0 22 22">
  <defs id="defs3051">
    <style type="text/css" id="current-color-scheme">
      .ColorScheme-Text {
        color:#eff0f1;
      }
      </style>
  </defs>
 <path 
    style="fill:currentColor;fill-opacity:1;stroke:none" 
    d="M 3 5 L 3 13 L 4 13 L 4 6 L 18 6 L 18 11 L 19 11 L 19 5 L 3 5 z M 7.5 7 C 6.669 7 6 7.669 6 8.5 L 6 10 L 5 10 L 5 13 L 10 13 L 10 10 L 9 10 L 9 8.5 C 9 7.669 8.331 7 7.5 7 z M 7.5 8 C 7.777 8 8 8.223 8 8.5 L 8 10 L 7 10 L 7 8.5 C 7 8.223 7.223 8 7.5 8 z M 11 8 L 11 9 L 17 9 L 17 8 L 11 8 z M 11 10 L 11 11 L 16 11 L 16 10 L 11 10 z M 11 12 L 11 13 L 15 13 L 15 12 L 11 12 z M 17.5 12 L 16.792969 12.707031 L 19.085938 15 L 14.792969 15 L 14 15 L 14 16 L 19.085938 16 L 16.792969 18.292969 L 17.5 19 L 20.292969 16.207031 L 21 15.5 L 20.292969 14.792969 L 17.5 12 z M 3 14 L 3 19 L 8 19 L 8 14 L 3 14 z M 5 15 L 7 15 L 7 16 L 5 16 L 5 15 z M 9 16 L 9 17 L 13 17 L 13 16 L 9 16 z M 4 17 L 7 17 L 7 18 L 4 18 L 4 17 z "
	class="ColorScheme-Text"
    />  
</svg>

<svg xmlns="http://www.w3.org/2000/svg" viewBox="0 0 22 22">
  <defs id="defs3051">
<style type="text/css" id="current-color-scheme">.ColorScheme-Text {color:#fcfcfc;}</style>
  </defs>
 <path 
    style="fill:currentColor;fill-opacity:1;stroke:none" 
    d="m 3,8 c 0,3 0,5 0,5 H 4 C 4,13 4,10 4,8 4,6 6,6 6,6 h 10 c 0,0 2,0 2,2 0,2 0,3 0,3 h 1 c 0,0 0,0 0,-3 C 19,5 16,5 16,5 H 6 C 6,5 3,5 3,8 Z M 7.5,7 C 6.669,7 6,7.669 6,8.5 V 10 c 0,0 -1,0 -1,1 0,1 0,0 0,1 0,1 1.0127356,1 1.0127356,1 H 9 c 0,0 1,0 1,-1 0,-1 0,0 0,-1 0,-1 -1,-1 -1,-1 V 8.5 C 9,7.669 8.331,7 7.5,7 Z m 0,1 C 7.777,8 8,8.223 8,8.5 V 10 H 7 V 8.5 C 7,8.223 7.223,8 7.5,8 Z M 11,8 v 1 h 6 V 8 Z m 0,2 v 1 h 5 v -1 z m 0,2 v 1 h 4 v -1 z m 6.5,0 -0.707031,0.707031 L 19.085938,15 H 14.792969 14 v 1 h 5.085938 L 16.792969,18.292969 17.5,19 20.292969,16.207031 21,15.5 20.292969,14.792969 Z M 3,15 v 3 c 0,0 0,1 1,1 1,0 2,0 3,0 1,0 1,-1 1,-1 v -3 c 0,0 0,-1 -1,-1 -1,0 -2,0 -3,0 -1,0 -1,1 -1,1 z m 2,0 h 2 v 1 H 5 Z m 4,1 v 1 h 4 v -1 z m -5,1 h 3 v 1 H 4 Z"
	class="ColorScheme-Text"
    />  
</svg>
